assets/icons/youtube.svg

<?xml version="1.0" encoding="UTF-8"?>
<svg width="24px" height="24px" viewBox="0 0 24 24" version="1.1" xmlns="http://www.w3.org/2000/svg" xmlns:xlink="http://www.w3.org/1999/xlink">
    <!-- Generator: Sketch 53.2 (72643) - https://sketchapp.com -->
    <title>Icon/Social/YouTube</title>
    <desc>Created with Sketch.</desc>
    <g id="Icon/Social/YouTube" stroke="none" stroke-width="1" fill="none" fill-rule="evenodd">
        <path d="M10.1419117,14.8604273 L10.1408848,9.68879254 L15.004621,12.2835953 L10.1419117,14.8604273 Z M20.8204638,8.79282312 C20.8204638,8.79282312 20.6445218,7.52443164 20.1048863,6.96596971 C19.420287,6.23276378 18.6530222,6.22916964 18.3013093,6.18621103 C15.7824971,6 12.004022,6 12.004022,6 L11.9961491,6 C11.9961491,6 8.21784522,6 5.699033,6.18621103 C5.34697778,6.22916964 4.58022649,6.23276378 3.89545597,6.96596971 C3.35582052,7.52443164 3.18004963,8.79282312 3.18004963,8.79282312 C3.18004963,8.79282312 3,10.2823402 3,11.7718573 L3,13.1682688 C3,14.6576147 3.18004963,16.147303 3.18004963,16.147303 C3.18004963,16.147303 3.35582052,17.4155233 3.89545597,17.9741564 C4.58022649,18.7073623 5.47961891,18.6840859 5.88028069,18.7609322 C7.32033545,18.9021308 12.0000856,18.945774 12.0000856,18.945774 C12.0000856,18.945774 15.7824971,18.9399549 18.3013093,18.7537439 C18.6530222,18.7109564 19.420287,18.7073623 20.1048863,17.9741564 C20.6445218,17.4155233 20.8204638,16.147303 20.8204638,16.147303 C20.8204638,16.147303 21,14.6576147 21,13.1682688 L21,11.7718573 C21,10.2823402 20.8204638,8.79282312 20.8204638,8.79282312 L20.8204638,8.79282312 Z" id="Shape" fill="#000000"></path>
    </g>
</svg>

<svg class="ucla-icon youtube" width="24" height="24" viewBox="0 0 24 24" aria-labelledby="icon-youtube" role="img"><title id="icon-youtube">Icon Social YouTube</title><g fill="none" fill-rule="evenodd"><path d="M10.142 14.86L10.14 9.69l4.864 2.595-4.863 2.576zM20.82 8.793s-.175-1.269-.715-1.827c-.685-.733-1.452-.737-1.804-.78C15.782 6 12.004 6 12.004 6h-.008S8.218 6 5.7 6.186c-.352.043-1.119.047-1.804.78-.54.558-.715 1.827-.715 1.827S3 10.283 3 11.772v1.396c0 1.49.18 2.98.18 2.98s.176 1.268.715 1.826c.685.733 1.585.71 1.985.787 1.44.141 6.12.185 6.12.185s3.782-.006 6.301-.192c.352-.043 1.12-.047 1.804-.78.54-.558.715-1.827.715-1.827s.18-1.49.18-2.979v-1.396c0-1.49-.18-2.98-.18-2.98z" id="Shape" fill="#000"/></g></svg>
